X:022
T:Minuet TS.022
M:3/4
L:1/8
Q:3/4=40
S:Thomas Sands’ MS,1810,Lincolnshire
R:minuet
C:Prefixed as ‘No.10′ in MS
O:England;Lincolnshire
Z:vmp.Ruairidh Greig, 2011
K:Bb
(3FGA|B2B2B2|B4df|fedcBA|B2B,2″s-q in ms””_p”(BA)|
G2F2B2|E2D2B2|ABcded|d2c2″s-q in ms””_f” de|
f2f2f2|”tr”f^g//a// gfed|e2e2e2|”tr”ef//g// fedc|
dBfdbf|f2 ecAc|[B2D2][B2D2][B2D2]|[B4D4]:|
|:(AB)|c2c2d2|dcBAGF|c2c2d2|e4(Bc)|
d2d2e2|edcBAG|c/d/e/c/B2″tr”A2|G4(F/E/D/E/)|
F2B2B2|B2ABcd|e2e2d2|d2c2″_p”de|
f>gfdbg|f>gfdbg|(f/g/f/e/)d2c2|”tr”c2B2:|]

